X:10
T:The New Rigged Ship
R:jig
D:Kinnon & Betty Beaton, Cape Breton Fiddle Compilation
Z:Paul Stewart Cranford (P.S.C.), <http://www.cranfordpub.com>
L:1/8
M:6/8
Q:300
K:C
c2 G c2 e|c2 G c2 e|dBG GBc|dBG GAB|
c2 G c2 e|c2 G c2 e|dBG GAB|[1c3 ced:|[2c3 cef||
|:g2 a g2 e|c2 G ceg|a3 g2 e|d2 c def|
g2 a g2 e|c2 G c2 e|dBG GAB|[1c3 cef:|[2c3 ced|]
